kYaru++/actions/16/gtk-disconnect.svg

<svg id="svg8" height="16" width="16" xmlns="http://www.w3.org/2000/svg">
  <g id="g6" fill="#444444">
    <path id="path2" d="m3.5507812 2v1 2l-1.5507812.015625v.984375h.3671874 1.1835938v4h-1.1835938-.3671874v1h1.5507812v2 1h1.255859c1.258-.015 2.178641.03023 2.931641-.384766.389353-.222149.686514-.576109.837891-.998046.164-.438001.224609-.960188.224609-1.617188v-6c0-.658-.05961-1.1791875-.224609-1.6171875-.151377-.4219369-.448538-.7758979-.837891-.9980469-.752-.416-1.673641-.3697656-2.931641-.3847656zm1 1h.25c1.259.015 2.087125.059719 2.453125.2617188.184.1.289719.2126562.386719.4726562s.160156.673625.160156 1.265625v6c0 .592-.06316 1.005625-.160156 1.265625-.098.26-.201766.371656-.384766.472656-.366.202-1.197078.246719-2.455078.261719h-.25z"/>
    <path id="rect887" d="m8.567342 7.5h6.432658v1h-6.432658z" fill="#444"/>
  </g>
</svg>

<?xml version="1.0" encoding="UTF-8" standalone="no"?>
<svg
   xmlns:dc="http://purl.org/dc/elements/1.1/"
   xmlns:cc="http://creativecommons.org/ns#"
   xmlns:rdf="http://www.w3.org/1999/02/22-rdf-syntax-ns#"
   xmlns:svg="http://www.w3.org/2000/svg"
   xmlns="http://www.w3.org/2000/svg"
   xmlns:sodipodi="http://sodipodi.sourceforge.net/DTD/sodipodi-0.dtd"
   xmlns:inkscape="http://www.inkscape.org/namespaces/inkscape"
   height="16"
   width="16"
   version="1.1"
   id="svg8"
   sodipodi:docname="gtk-disconnect.svg"
   inkscape:version="0.92.4 (5da689c313, 2019-01-14)">
  <metadata
     id="metadata14">
    <rdf:RDF>
      <cc:Work
         rdf:about="">
        <dc:format>image/svg+xml</dc:format>
        <dc:type
           rdf:resource="http://purl.org/dc/dcmitype/StillImage" />
        <dc:title></dc:title>
      </cc:Work>
    </rdf:RDF>
  </metadata>
  <defs
     id="defs12" />
  <sodipodi:namedview
     pagecolor="#ffffff"
     bordercolor="#666666"
     borderopacity="1"
     objecttolerance="10"
     gridtolerance="10"
     guidetolerance="10"
     inkscape:pageopacity="0"
     inkscape:pageshadow="2"
     inkscape:window-width="1920"
     inkscape:window-height="1016"
     id="namedview10"
     showgrid="true"
     inkscape:zoom="69.916667"
     inkscape:cx="8"
     inkscape:cy="8.1447088"
     inkscape:window-x="0"
     inkscape:window-y="27"
     inkscape:window-maximized="1"
     inkscape:current-layer="g6">
    <inkscape:grid
       type="xygrid"
       id="grid835" />
  </sodipodi:namedview>
  <g
     fill="gray"
     id="g6">
    <path
       style="line-height:normal;font-variant-ligatures:normal;font-variant-position:normal;font-variant-caps:normal;font-variant-numeric:normal;font-variant-alternates:normal;font-feature-settings:normal;text-indent:0;text-align:start;text-decoration:none;text-decoration-line:none;text-decoration-style:solid;text-decoration-color:#000000;text-transform:none;text-orientation:mixed;shape-padding:0;isolation:auto;mix-blend-mode:normal;marker:none"
       d="M 3.5507812,2 V 3 5 L 2,5.015625 V 6 h 0.3671874 1.1835938 v 4 H 2.3671874 2 v 1 h 1.5507812 v 2 1 h 1.255859 c 1.258,-0.015 2.178641,0.03023 2.931641,-0.384766 0.389353,-0.222149 0.686514,-0.576109 0.837891,-0.998046 C 8.7401722,12.179187 8.8007812,11.657 8.8007812,11 V 5 c 0,-0.658 -0.05961,-1.1791875 -0.224609,-1.6171875 C 8.4247952,2.9608756 8.1276342,2.6069146 7.7382812,2.3847656 6.9862812,1.9687656 6.0646402,2.015 4.8066402,2 Z m 1,1 h 0.25 c 1.259,0.015 2.087125,0.059719 2.453125,0.2617188 0.184,0.1 0.289719,0.2126562 0.386719,0.4726562 0.097,0.26 0.160156,0.673625 0.160156,1.265625 v 6 c 0,0.592 -0.06316,1.005625 -0.160156,1.265625 -0.098,0.26 -0.201766,0.371656 -0.384766,0.472656 -0.366,0.202 -1.197078,0.246719 -2.455078,0.261719 h -0.25 z"
       id="path2"
       inkscape:connector-curvature="0" />
    <rect
       style="opacity:1;fill:#ececec;fill-opacity:1;stroke:none;stroke-width:51.08918381;stroke-miterlimit:4;stroke-dasharray:none;stroke-opacity:1"
       id="rect887"
       width="6.4326577"
       height="1"
       x="8.5673418"
       y="7.5" />
  </g>
</svg>
